X: 562
T:Fergal O'Gara's
T:Farrell O'Gara
R:reel
S:Session at Shoot the Crows, Sligo, 1992
D:Molloy, Peoples, Brady
N:Posted to the woodenflute mailing list, August 2002
Z:Henrik Norbeck : id:hn-reel-407
M:C|
K:D
~A,3B, DEFA|BFAF EFGA|dBcA BdAF|GEFD EDB,D|
~A,3B, DEFA|BFAF EFGA|dBcA BdAF|1 GFEG FDDB,:|2 GFEG FDDe||
fd~d2 fdge|fdgf edBc|dBBA Bcde|fdgf e2de|
fd~d2 fdge|fdgf edBc|dBBA BdAF|GFEG FDDe|
fd~d2 fdge|fdgf edBc|dBBA Bcde|fdgf ~e3g|
faaf edBc|dBBA BAFE|D2DC DEFA|BFAF DEDB,||
"variations"
A,D~D2 A,DFA|BdAF EFAc|d2dA B2AF|EGFD EB,~B,2|
A,D~D2 A,DFA|BdAF EFAc|~d3A B2AF|GBAG FDDB,|
A,D~D2 A,DFA|BdAF EFAc|dBBA BAGF|GAFD EB,~B,2|
A,D~D2 A,DFA|BdAF EFAc|~d3A B2AF|GBAG FDDe||
fd~d2 fdge|fedf eB~B2|d2dA Bcde|fedA cdeg|
fd~d2 fdge|fedf eB~B2|d2dA B2AF|GBAG FDDe|
fd~d2 fdge|fedf eB~B2|d2dA Bcde|f2df e3e|
f2af edBc|d2dA BAFD|A,D~D2 A,DFA|BdAF DEDB,||
"variations"
|:A,DDA, DEFA|BFAF E2Ac|d2cd BAFA|G2FG EDB,G,|
A,DDA, DEFA|B2AF E2Ac|d2cd BAFA|1 GFEG FEDB,:|2 GBAG FDDe||
fd~d2 fdgd|fd~d2 edBc|dBBA Bcde|fagf efge|
fd~d2 fdgd|fd~d2 edBc|dBBA BAGF|GFEG FDDe|
fd~d2 fdgd|fd~d2 edBc|dBBA Bcde|fagf efge|
f2af eAce|defd BAFE|D2DF ADFA|B2AF GEDB,||

